X: 23271
T: Leaving Rùm
R: reel
M: 4/4
K: Amajor
|:ea a2 fecB|ABEF AcBA|FB B2 cB B2|FBAc BAFE|
ea a2 fecB|ABEF AcBA|FB B2 cBBA|FAGB A4:|
c3 c ecfc|a2 ec BAFE|FB B2 cB B2|FBAc BAFE|
c3 c ecfc|a2 ec BAFE|FB B2 cBBA|FAGB A2 AB|
c3 c ecfc|a2 ec BAFE|FB B2 cB B2|FBAc BAFA|
ga a2 ef f2|ec c2 BAFE|FB B2 cBBA|FAGB A4||

